X: 4163
T: BELFAST CHICKEN
%R: reel
B: James Kerr "Merry Melodies" v.4 p.19 #163
Z: 2016 John Chambers <jc:trillian.mit.edu>
M: C|
L: 1/8
K: D
|:\
d2e2 dcAc | =cBcG EFGE |\
Dddc dcAd | dBAG (FD)D2 ::\
efge e=cgc |
e=cgc dccg |\
[1 fgaf gddg | fdag fddg :|\
[2 abaf gedB | ABAG (FD)D2 |]

%%sep 1 1 500
%%sep 1 1 500

